src/components/ReferenciasVisuais/aros/Redondo.svg

<?xml version="1.0" encoding="UTF-8" standalone="no"?>
<!-- Created with Inkscape (http://www.inkscape.org/) -->

<svg
   width="133.34641mm"
   height="133.34628mm"
   viewBox="0 0 133.34641 133.34628"
   version="1.1"
   id="svg1"
   xml:space="preserve"
   xmlns:inkscape="http://www.inkscape.org/namespaces/inkscape"
   xmlns:sodipodi="http://sodipodi.sourceforge.net/DTD/sodipodi-0.dtd"
   xmlns="http://www.w3.org/2000/svg"
   xmlns:svg="http://www.w3.org/2000/svg"><sodipodi:namedview
     id="namedview1"
     pagecolor="#ffffff"
     bordercolor="#000000"
     borderopacity="0.25"
     inkscape:showpageshadow="2"
     inkscape:pageopacity="0.0"
     inkscape:pagecheckerboard="0"
     inkscape:deskcolor="#d1d1d1"
     inkscape:document-units="mm"><inkscape:page
       x="1.0524623e-13"
       y="0"
       width="133.34641"
       height="133.34628"
       id="page2"
       margin="0"
       bleed="0" /></sodipodi:namedview><defs
     id="defs1" /><g
     inkscape:label="Camada 1"
     inkscape:groupmode="layer"
     id="layer1"
     transform="translate(-37.41154,-91.692898)"><g
       style="overflow:visible;stroke-width:14.1732;stroke-dasharray:none"
       id="g1"
       transform="matrix(0.35277778,0,0,0.35277778,-74.875845,52.707252)"><path
         d="m 507.2898,481.4133 c -14.6532,0 -29.3064,-1.7792 -43.5338,-5.2859 -14.2275,-3.5067 -28.0291,-8.7409 -41.0039,-15.5506 -12.9747,-6.8096 -25.1227,-15.1946 -36.0908,-24.9114 -10.968,-9.7168 -20.7563,-20.7653 -29.0803,-32.8246 -8.324,-12.0592 -15.1837,-25.1292 -20.3798,-38.8301 -5.196,-13.7009 -8.7285,-28.0326 -10.4948,-42.5789 -1.7662,-14.5462 -1.7662,-29.3069 0,-43.8532 1.7663,-14.5462 5.2988,-28.878 10.4948,-42.5789 5.1961,-13.7008 12.0558,-26.7708 20.3798,-38.8301 8.324,-12.0592 18.1122,-23.1078 29.0803,-32.8245 10.9681,-9.7168 23.1161,-18.1019 36.0908,-24.9115 12.9748,-6.8096 26.7764,-12.0438 41.0039,-15.5506 14.2274,-3.5067 28.8806,-5.2859 43.5338,-5.2859 14.6533,0 29.3065,1.7792 43.5339,5.2859 14.2274,3.5068 28.029,8.741 41.0038,15.5506 12.9747,6.8096 25.1227,15.1947 36.0908,24.9114 10.9681,9.7168 20.7563,20.7654 29.0803,32.8246 8.324,12.0593 15.1837,25.1293 20.3798,38.8301 5.1961,13.7009 8.7286,28.0327 10.4948,42.5789 1.7663,14.5463 1.7663,29.307 0,43.8532 -1.7662,14.5463 -5.2987,28.878 -10.4948,42.5789 -5.1961,13.7009 -12.0558,26.7709 -20.3798,38.8301 -8.324,12.0593 -18.1122,23.1078 -29.0803,32.8246 -10.9681,9.7168 -23.1161,18.1018 -36.0908,24.9114 -12.9748,6.8097 -26.7764,12.0439 -41.0038,15.5506 -14.2274,3.5067 -28.8806,5.2859 -43.5339,5.2859 z"
         stroke="#000000"
         stroke-width="0.24"
         fill-opacity="0"
         id="path1"
         style="stroke-width:14.1732;stroke-dasharray:none" /></g></g></svg>

﻿<?xml version="1.0" encoding="UTF-8" standalone="no"?>
<!DOCTYPE svg PUBLIC "-//W3C//DTD SVG 1.1//EN" "http://www.w3.org/Graphics/SVG/1.1/DTD/svg11.dtd">
<svg width="1008pt" height="612pt" viewBox="0 0 1008 612" overflow="visible" version="1.1" xmlns="http://www.w3.org/2000/svg">
  <path d="M507.2898,481.4133 C492.6366,481.4133 477.9834,479.6341 463.756,476.1274 C449.5285,472.6207 435.7269,467.3865 422.7521,460.5768 C409.7774,453.7672 397.6294,445.3822 386.6613,435.6654 C375.6933,425.9486 365.905,414.9001 357.581,402.8408 C349.257,390.7816 342.3973,377.7116 337.2012,364.0107 C332.0052,350.3098 328.4727,335.9781 326.7064,321.4318 C324.9402,306.8856 324.9402,292.1249 326.7064,277.5786 C328.4727,263.0324 332.0052,248.7006 337.2012,234.9997 C342.3973,221.2989 349.257,208.2289 357.581,196.1696 C365.905,184.1104 375.6932,173.0618 386.6613,163.3451 C397.6294,153.6283 409.7774,145.2432 422.7521,138.4336 C435.7269,131.624 449.5285,126.3898 463.756,122.883 C477.9834,119.3763 492.6366,117.5971 507.2898,117.5971 C521.9431,117.5971 536.5963,119.3763 550.8237,122.883 C565.0511,126.3898 578.8527,131.624 591.8275,138.4336 C604.8022,145.2432 616.9502,153.6283 627.9183,163.345 C638.8864,173.0618 648.6746,184.1104 656.9986,196.1696 C665.3226,208.2289 672.1823,221.2989 677.3784,234.9997 C682.5745,248.7006 686.107,263.0324 687.8732,277.5786 C689.6395,292.1249 689.6395,306.8856 687.8732,321.4318 C686.107,335.9781 682.5745,350.3098 677.3784,364.0107 C672.1823,377.7116 665.3226,390.7816 656.9986,402.8408 C648.6746,414.9001 638.8864,425.9486 627.9183,435.6654 C616.9502,445.3822 604.8022,453.7672 591.8275,460.5768 C578.8527,467.3865 565.0511,472.6207 550.8237,476.1274 C536.5963,479.6341 521.9431,481.4133 507.2898,481.4133 z" stroke="#000000" stroke-width="0.24" fill-opacity="0" />
</svg>
